!!!OTL: MEI DIENDERL IS HARB AUF MI
!!!ARE: Europa, Mitteleuropa, Oesterreich, Steiermark
!!!SCT: E0610
!!!YEM: Copyright 1995, estate of Helmut Schaffrath.
**kern
*ICvox
*Ivox
*M3/4
*k[f#]
*G:
{8d
8a
=1
4.b
8a
4b
=2
8cc
8f#
4f#
8r}
{8cc
=3
4.cc
8b
4cc
=4
4dd
4r}
{4dd
=5
4.dd
8cc#
4dd
=6
4gg
4a}
{8a
8b
=7
8cc
8f#
8cc
8f#
8cc
8f#
=8
4g
4r}
{4b
=9
4a
4b
4cc#
=10
4.dd
8cc#}
{4b
=11
4a
4.ff#
8ee
=12
2dd}
{8d
8b
=13
4.b
8a
4b
=14
4ee
4a}
{8a
8b
=15
8cc
8f#
8cc
8f#
8cc
8f#
=16
4g
4r}
{4dd
=17
4.dd
8cc#
4dd
=18
4gg
4a}
{8a
8b
=19
8cc
8f#
8cc
8f#
8cc
8f#
=20
4g
4r}
{8d
8b
=21
4b
4.a
8b
=22
8cc
8ee
4f#}
{8.a
16b
=23
8cc
8ee
8dd#
8ee
8dd
8cc
=24
8b
8gg
4g}
{8b
8cc
=25
8ee
8dd
8cc
8b
8a
8g
=26
4.aa}
{8gg
8ff#
8ee
=27
8ee
8f#
8ee
8f#
8ee
8f#
=28
2g}
==
!!!AGN: Liebes - Lied
!!!ONB: ESAC (Essen Associative Code) Database: ERK1
!!!AMT: simple triple
!!!AIN: vox
!!!EED: Helmut Schaffrath
!!!EEV: 1.0
*-
